X: 37596
T: Smith's A Gallant Fireman, The
R: strathspey
M: 4/4
K: Dmajor
D2D>F A2A>F|A>Bd<A F2E>D|E2E>G B2B>c|d>fe<d B>AB<d|
D2D>F A2A>F|A>Bd<A F2E>D|G>BG<B F>AF<A|E>FG>A B>AB<c||
d2f>e d2d>B|A>Bd<A F2E>D|e2e>f e2e>f|g>fe<d B>AB<c|
d2f>e d2d>B|A>Bd<A F2E>D|G>BG<B F>AF<A|E>FG>A B>AB<d||

